src/assets/icons/book.svg

<svg width="14" height="14" viewBox="0 0 14 14" fill="none" xmlns="http://www.w3.org/2000/svg">
<g id="book">
<g clip-path="url(#clip0_156_4514)">
<path id="Vector" fill-rule="evenodd" clip-rule="evenodd" d="M1.99999 1.87998C1.99999 1.55524 2.30535 1.2 2.79999 1.2H12V9.6H3.15199C2.74094 9.6 2.3455 9.70192 1.99999 9.88367V1.87998ZM1.99999 11.8C1.99999 12.2995 2.46397 12.8 3.15199 12.8H12V10.8H3.15199C2.46397 10.8 1.99999 11.3005 1.99999 11.8ZM13.2 10.2V0.6C13.2 0.268629 12.9314 0 12.6 0H2.79999C1.74263 0 0.799988 0.796716 0.799988 1.87998V11.8C0.799988 13.0605 1.90401 14 3.15199 14H12.6C12.9314 14 13.2 13.7314 13.2 13.4V10.2ZM3.79999 3.8C3.79999 3.46863 4.06862 3.2 4.39999 3.2H9.59999C9.93136 3.2 10.2 3.46863 10.2 3.8C10.2 4.13137 9.93136 4.4 9.59999 4.4H4.39999C4.06862 4.4 3.79999 4.13137 3.79999 3.8ZM4.39999 6C4.06862 6 3.79999 6.26863 3.79999 6.6C3.79999 6.93137 4.06862 7.2 4.39999 7.2H9.59999C9.93136 7.2 10.2 6.93137 10.2 6.6C10.2 6.26863 9.93136 6 9.59999 6H4.39999Z" fill="black"/>
</g>
</g>
<defs>
<clipPath id="clip0_156_4514">
<rect width="14" height="14" fill="white"/>
</clipPath>
</defs>
</svg>

<svg xmlns="http://www.w3.org/2000/svg" fill="none" viewBox="0 0 14 14"><g clip-path="url(#a)"><path fill="#000" fill-rule="evenodd" d="M2 1.88c0-.325.305-.68.8-.68H12v8.4H3.152c-.411 0-.807.102-1.152.284zm0 9.92c0 .5.464 1 1.152 1H12v-2H3.152c-.688 0-1.152.5-1.152 1m11.2-1.6V.6a.6.6 0 0 0-.6-.6H2.8C1.743 0 .8.797.8 1.88v9.92c0 1.26 1.104 2.2 2.352 2.2H12.6a.6.6 0 0 0 .6-.6zM3.8 3.8a.6.6 0 0 1 .6-.6h5.2a.6.6 0 1 1 0 1.2H4.4a.6.6 0 0 1-.6-.6M4.4 6a.6.6 0 0 0 0 1.2h5.2a.6.6 0 1 0 0-1.2z" clip-rule="evenodd"/></g><defs><clipPath id="a"><path fill="#fff" d="M0 0h14v14H0z"/></clipPath></defs></svg>
